!!!COM: Haydn, Franz Joseph
!!!OTL: String Quartet in F Major
!!!OPS: Opus 77
!!!ONM: No. 2
!!!OMD: Finale: Vivace assai
!!!OMV: 4
!!!SCT: H III:82
!!!SCA: Thematisch-bibliographisches Werkevererzeichnis (A. van Hoboken)
!!!YOR: Trautwein Edition
!!!ENC: Frances Bennion
!!!CDT: 1732/3/31/-1809/5/31/
!!!CNT: Oesterreich
!!!YEC: Copyright (c) 1994, 2000 Center for Computer Assisted Research in the Humanities
!!!YEM: Rights to all derivative editions reserved.
!!!YEM: Refer to licensing agreement for further details.
!!!YEN: United States of America
**kern	**kern	**kern	**kern
*k[b-]	*k[b-]	*k[b-]	*k[b-]
*F:	*F:	*F:	*F:
*clefF4	*clefC3	*clefF	*clefF
*M3/4	*M3/4	*M3/4	*M3/4
2FF	2c	2f 2A	2f 2A
8r	8r	8r	8r
8r	8r	8r	16cc
.	.	.	16b-
=2	=2	=2	=2
4.r	4.r	4.r	8a
.	.	.	8g
.	.	.	8f
8B-	8G	8c	8e
8A	8c	8f	8f
8E	8c	8B-	8g
=3	=3	=3	=3
8F	8c	8A	8a
8E-	8A	8c	8f
8D	8f	8B-	8b-
4.r	4.r	4.r	4r
.	.	.	16dd
.	.	.	16cc
=4	=4	=4	=4
4.r	4.r	4.r	8b-
.	.	.	8a
.	.	.	8g
8c	8A	8d	8f#
8B-	8d	8g	8g
8F#	8d	8c	8a
=5	=5	=5	=5
8G	8d	8B-	8b-
8F	8B-	8d	8g
8E	8g	8c	8cc
4.r	4.r	4.r	4r
.	.	.	16gg
.	.	.	16ff
=6	=6	=6	=6
2.r	4.r	4.r	8ee
.	.	.	8dd
.	.	.	8cc
.	8f	8a-	8b
.	8e	8g	8cc
.	8f	8a-	8b
=7	=7	=7	=7
4.r	4e	8g	8cc
.	.	8a	8cc#
.	4r	4.b-	4.dd
16C	.	.	.
16D	.	.	.
8E	4G	.	.
8EE	.	16a	16cc
.	.	16g	16b-
=8	=8	=8	=8
8FF	4A	4f	8a
16F	.	.	16aa
16G	.	.	16gg
8A	8r	8r	4ff
8FF	8A	8c	.
8FF	8B-	8d	8ff
8FF	8B-	8e	16ee
.	.	.	16dd
=9	=9	=9	=9
8FF	4B-	8f	4dd
16F	.	8e	.
16G	.	.	.
8A	8A	8f	8cc
8FF	8A	8c	16aa
.	.	.	16gg
8FF	8B-	8d	8ff
8FF	8B-	8e	16ee
.	.	.	16dd
=10	=10	=10	=10
8FF	4B-	8f	4dd
16F	.	8e	.
16G	.	.	.
8A	8A	8f	8cc
8FF	8f	8c	16aa
.	.	.	16gg
8FF	8f	8a	16ff
.	.	.	16ee
8FF	8f	8a	16dd
.	.	.	16cc
=11	=11	=11	=11
4GG	4g	8d	8cc
.	.	8r	8b
8r	8r	8e	8b-
8C	8g	8r	8r
8r	8r	8f	8a
8D	8f	8r	8r
=12	=12	=12	=12
8r	8r	8d	8g
8BB-	8g	8r	8r
8r	8r	8B-	8b-
8GG	8d	8r	8r
8r	8r	8G	8e
8C	8B-	8r	8r
=13	=13	=13	=13
16FF	4.A	16A	4.A 4.f
16EE	.	16B-	.
16FF	.	16A	.
16EE	.	16B-	.
8FF	.	8A	.
8FF	8A	8f	8f
8FF	8B-	8e	8g
8FF	8c	8e-	8a
=14	=14	=14	=14
16FF	2.B-	2.d	4.b-
16EE	.	.	.
16FF	.	.	.
16EE	.	.	.
8FF	.	.	.
8FF	.	.	16dd
.	.	.	16cc
8FF	.	.	16b-
.	.	.	16a
8FF	.	.	16g
.	.	.	16f
=15	=15	=15	=15
8FF	8d-	8B- 8e	4.G 4.e
8r	4d-	4B- 4e	.
8FF	.	.	.
8r	4d-	4B- 4e	16gg
.	.	.	16ee
8FF	.	.	16gg
.	.	.	16ee
8r	8d-	8B- 8e	16gg
.	.	.	16ee
=16	=16	=16	=16
4.FF	8c	8f 8A	8.ccc
.	4c	4f 4A	.
.	.	.	16aa
.	.	.	8ff
8FF	8A	8f	8f
8FF	8B-	8e	8g
8FF	8c	8e-	8a
=17	=17	=17	=17
16FF	2.B-	2.d	4.b-
16EE	.	.	.
16FF	.	.	.
16EE	.	.	.
8FF	.	.	.
8FF	.	.	16dd
.	.	.	16cc
8FF	.	.	16b-
.	.	.	16a
8FF	.	.	16g
.	.	.	16f
=18	=18	=18	=18
8FF	8d-	8B- 8e	4.G 4.e
8r	4d-	4e 4B-	.
8FF	.	.	.
8r	4d-	4B- 4e	16gg
.	.	.	16ee
8FF	.	.	16gg
.	.	.	16ee
8r	8d-	8B- 8e	16gg
.	.	.	16ee
=19	=19	=19	=19
4FF	4c	8f 8A	8.ccc
.	.	4f 4A	.
.	.	.	16aa
2r	8r	.	8ff
.	8b-	8cc	16gg
.	.	.	16ee
.	8b-	8cc	16gg
.	.	.	16ee
.	8b-	8cc	16gg
.	.	.	16ee
=20	=20	=20	=20
4.r	4a	4cc	8.ccc
.	.	.	16aa
.	8r	8r	8ff
8c#	8e	8a 8gg	16aa
.	.	.	16a
8c#	8e	8gg 8a	16aa
.	.	.	16a
8c#	8e	8gg 8a	16aa
.	.	.	16a
=21	=21	=21	=21
4d	4f	4ff	8.aa
.	.	.	16ff
8r	4r	4r	8dd
16DD	.	.	16ff
16FF	.	.	16dd
8AA	8.D	8.f	8a
16FF	.	.	16dd
16AA	16D	16f	16a
=22	=22	=22	=22
8D	2D	2A	8f
16AA	.	.	16a
16D	.	.	16f
8F	.	.	8d
16D	.	.	16f
16F	.	.	16d
8A	8.D	8.f	8A
8FF	.	.	8d
.	16D	16f	.
=23	=23	=23	=23
8GG	2D	2f	4c
8G	.	.	.
8GG	.	.	4B
8GG	.	.	.
8GG	4F	4B	4g
8GG	.	.	.
=24	=24	=24	=24
8GG	4B	4d	4f
8G	.	.	.
8GG	4c	4c	4e
8GG	.	.	.
8GG	4e	4g	[4cc
8GG	.	.	.
=25	=25	=25	=25
8GG	2d	2f	4cc]
8G	.	.	.
8GG	.	.	4b
8GG	.	.	.
8GG	4f	4a-	[4dd
8GG	.	.	.
=26	=26	=26	=26
8GG	2e	2g	4dd]
8G	.	.	.
8GG	.	.	4cc
8GG	.	.	.
8GG	4a	4cc	[4ff
8GG	.	.	.
=27	=27	=27	=27
8GG	4b	4dd	4ff]
8G	.	.	.
8GG	4cc	4ee	4ee
8GG	.	.	.
8GG	4cc	4ee-	[4aa
8GG	.	.	.
=28	=28	=28	=28
8GG	4b	2dd	4aa]
8G	.	.	.
8GG	8B	.	4gg
8GG	8d	.	.
8GG	8e-	[4cc	4ff# 4a
8GG	8e-	.	.
=29	=29	=29	=29
8GG	4e-	4cc]	4ff#
8G	.	.	.
8GG	8d	8b	8gg
8G	16c	16a	16ff#
.	16d	16b	16gg
8GG	8e-	8cc	8aa
8G	16e-	16cc	16aa
.	16c	16a	16ff#
=30	=30	=30	=30
8GG	8d	8b	8gg
8G	4d	4b	16gg
.	.	.	16ff#
8GG	.	.	8gg
8G	16c	16a	16ff#
.	16d	16b	16gg
8GG	8e-	8cc	8aa
8G	16e-	16cc	16aa
.	16c	16a	16ff#
=31	=31	=31	=31
8GG	8d	8b	8gg
8G	4d	4b	16gg
.	.	.	16ff#
8GG	.	.	8gg
4r	4r	8r	16aa
.	.	.	16gg
.	.	8r	8ff
8BB	[8g	8d	16gg
.	.	.	16ff
=32	=32	=32	=32
8C	8g]	8e	8ee
8D	8f	8f	8dd
8E	8e	8g	8cc
8F	8d	8g	8b
8E	8c	8g	8cc
8r	8B	8d	16gg
.	.	.	16ff
=33	=33	=33	=33
4r	8c	8e	8ee
.	8d	8f	8dd
4.r	8e	8g	8cc
.	8f	8g	8b
.	8e	8g	8cc
8c#	8e	8r	16aa
.	.	.	16gg
=34	=34	=34	=34
8d	8f	4.r	8ff
8e	8g	.	8ee
8f	8a	.	8dd
8g	8b-	8e	8cc#
8f	8a	8f	8dd
8e	8g	8g	8ee
=35	=35	=35	=35
8d	8f	8a	8ff
8c	8a	8ee-	8ff#
8B	8g	8dd	8gg
8A	8cc	8ff#	8aa
8G	8dd	8gg	8bb-
8F	8g	8dd	8bb
=36	=36	=36	=36
2E	2g	2cc	16ccc
.	.	.	16bb
.	.	.	16ccc
.	.	.	16eee
.	.	.	16ccc
.	.	.	16bb
.	.	.	16ccc
.	.	.	16gg
4A	4e	[4cc	16ccc
.	.	.	16bb
.	.	.	16ccc
.	.	.	16eee
=37	=37	=37	=37
4F	4a	4cc]	16ddd
.	.	.	16ccc#
.	.	.	16ddd
.	.	.	16fff
4G	4g	8b	16ddd
.	.	.	16eee
.	.	8cc	16ccc
.	.	.	16ddd
4GG	4f	8dd	16bb
.	.	.	16ccc
.	.	16ff	16ddd
.	.	16dd	16bb
=38	=38	=38	=38
4C	2e	8cc	16ccc
.	.	.	16bb
.	.	8g	16ccc
.	.	.	16eee
4r	.	4cc	16ccc
.	.	.	16bb
.	.	.	16ccc
.	.	.	16gg
4AA	[4c	4e	16ccc
.	.	.	16bb
.	.	.	16ccc
.	.	.	16eee
=39	=39	=39	=39
4FF	4c]	4a	16ddd
.	.	.	16ccc#
.	.	.	16ddd
.	.	.	16fff
4GG	8B	4g	16ddd
.	.	.	16eee
.	8c	.	16ccc
.	.	.	16ddd
4GG	8d	4f	16bb
.	.	.	16ccc
.	16f	.	16ddd
.	16d	.	16bb
=40	=40	=40	=40
8C	4c	2.e 2.G	8ccc
8CC	.	.	4gg
8C	4e	.	.
8CC	.	.	4ee
8C	4c	.	.
8CC	.	.	16gg
.	.	.	16ee
=41	=41	=41	=41
8C	8B	8d 8G	8ff
4C	4d 4B	4G 4f	16ff
.	.	.	16ee
.	.	.	8dd
4C	4d 4B	4G 4f	16dd
.	.	.	16cc
.	.	.	8b
8C	8d 8B	8f 8G	8gg
=42	=42	=42	=42
8C	4c	2.G 2.e	8gg
8CC	.	.	4ccc
8C	4e	.	.
8CC	.	.	4eee
8C	4c	.	.
8CC	.	.	8ggg
=43	=43	=43	=43
8C	8d 8B	8f 8G	16ggg
.	.	.	16fff
4C	4d 4B	4G 4f	16fff
.	.	.	16eee
.	.	.	16eee
.	.	.	16ddd
4C	4d 4B	4f 4G	16fff
.	.	.	16ddd
.	.	.	8bb
8C	8B 8d	8f 8G	8bb
=44	=44	=44	=44
8C	2.c 2.e	2G 2e	16ccc
.	.	.	16eee
8CC	.	.	16ggg
.	.	.	16eee
8C	.	.	4.gg
8CC	.	.	.
8C	.	4cc	.
8CC	.	.	16aa
.	.	.	16gg
=45	=45	=45	=45
8C	8f 8G	8b 8d	8ff
4C	4f 4G	4b 4d	16ff
.	.	.	16ee
.	.	.	8dd
4C	4G 4f	4b 4d	16dd
.	.	.	16cc
.	.	.	8b
8C	8G 8f	8b 8d	8dd
=46	=46	=46	=46
8C	16G 16e	4cc 4e	16cc
.	16d	.	16dd
8c	16e	.	16ee
.	16f	.	16ff
8c	8g	8r	8gg
8c	4g	4e	4gg
8c	.	.	.
8c	16f#	8d#	16ff#
.	16a	.	16aa
=47	=47	=47	=47
8c	8g	8e	8gg
8c	16f#	8d#	16ff#
.	16a	.	16aa
8c	8g	8e	8gg
8c	16f#	8d#	16ff#
.	16a	.	16aa
8c	8g	8e	8gg
8c	8cc	8g	8ccc
=48	=48	=48	=48
4F	8f	8a	8dd
.	4f	4a	4dd
2r	.	.	.
.	8g	8b-	16cc#
.	.	.	16ee
.	8f	8a	8dd
.	8g	8b-	16cc#
.	.	.	16ee
=49	=49	=49	=49
2.r	4f	4a	8dd
.	.	.	16ff
.	.	.	16gg
.	2r	2r	16aa
.	.	.	16gg#
.	.	.	16aa
.	.	.	16gg#
.	.	.	16aa
.	.	.	16ff
.	.	.	16ee
.	.	.	16dd
=50	=50	=50	=50
4GG	4e	4cc	16cc
.	.	.	16gg
.	.	.	16ff
.	.	.	16ee
4r	4r	4r	16dd
.	.	.	16cc
.	.	.	16b
.	.	.	16a
4GG	4f	4b 4d	16g
.	.	.	16f
.	.	.	16e
.	.	.	16d
=51	=51	=51	=51
4C	4e	4cc 4e	16c
.	.	.	16G
.	.	.	16c
.	.	.	16e
2r	2r	2r	16g
.	.	.	16f#
.	.	.	16a
.	.	.	16g
.	.	.	16f
.	.	.	16e
.	.	.	16d
.	.	.	16c
=52	=52	=52	=52
4F	4f 4G	4d 4b	16B
.	.	.	16d
.	.	.	16g
.	.	.	16b
2r	2r	2r	16dd
.	.	.	16cc#
.	.	.	16ee
.	.	.	16dd
.	.	.	16cc
.	.	.	16b
.	.	.	16a
.	.	.	16g
=53	=53	=53	=53
4E	4c	4g 4cc	16cc
.	.	.	16b
.	.	.	16cc
.	.	.	16ee
2r	2r	2r	16gg
.	.	.	16ff#
.	.	.	16aa
.	.	.	16gg
.	.	.	16ff
.	.	.	16ee
.	.	.	16dd
.	.	.	16cc
=54	=54	=54	=54
8F	8f	8cc	16b
.	.	.	16a
8r	8r	16ff	16aa
.	.	16dd	16ff
8G	8g	8cc	8ee
8r	8r	16ee	16gg
.	.	16cc	16ee
8GG	8d	8b	8ff
8r	8r	16dd	16dd
.	.	16f	16b
=55	=55	=55	=55
8C	8e	8e	8cc
8G	16d	16f	16b
.	16f	16d	16dd
8C	8e	8e	8cc
8GG	16d	16b	16dd
.	16B	16dd	16ff
8C	8c	8cc	8ee
8G	16d	16d	16b
.	16B	16f	16dd
=56	=56	=56	=56
8C	8e	8e	8cc
8G	16d	16f	16b
.	16f	16d	16dd
8C	8e	8e	8cc
8GG	16d	16b	16dd
.	16B	16dd	16ff
8C	8c	8cc	8ee
8G	16d	16d	16b
.	16B	16f	16dd
=57	=57	=57	=57
4C	4e	4e	8cc
.	.	.	16ee
.	.	.	16dd
2r	2r	2r	8cc
.	.	.	16gg
.	.	.	16ff
.	.	.	8ee
.	.	.	16bb-
.	.	.	16aa
=58	=58	=58	=58
4r	4r	4r	8gg
.	.	.	16gg
.	.	.	16ff
4.r	4.r	4r	8ee
.	.	.	16ee
.	.	.	16dd
.	.	8r	8cc
8E	8c	8g	16cc
.	.	.	16b-
=59	=59	=59	=59
8F	8c	8a	8a
8G	8B-	8e	8g
8A	8A	8f	8f
8B-	8G	8c	8e
8A	8c	8f	8f
8E	8c	8B-	8g
=60	=60	=60	=60
8F	8c	8A	8a
8E-	8A	8c	8f
8D	8f	8B-	8b-
4r	16d	4r	4r
.	16c	.	.
.	8B-	.	.
8F#	8d	8a	16dd
.	.	.	16cc
=61	=61	=61	=61
8G	8d	8b-	8b-
8A	8c	8f#	8a
8B-	8B-	8g	8g
8c	8A	8d	8f#
8B-	8d	8g	8g
8F#	8d	8c	8a
=62	=62	=62	=62
8G	8d	8B-	8b-
8F	8B-	8d	8g
8E	8g	8c	8cc
16EE	4r	4r	4r
16DD	.	.	.
8CC	.	.	.
8r	8B	8d	16gg
.	.	.	16ff
=63	=63	=63	=63
2.r	8c	8e	8ee
.	8d	8f	8dd
.	8e	8g	8cc
.	8f	8a-	8b
.	8e	8g	8cc
.	8f	8a-	8b
=64	=64	=64	=64
4.r	4e	8g	8cc
.	.	8a	8cc#
.	4r	4.b-	4.dd
16C	.	.	.
16D	.	.	.
8E	4G	.	.
8EE	.	16a	16cc
.	.	16g	16b-
=65	=65	=65	=65
[2AA	[2g	[2cc#	8gg
.	.	.	16gg
.	.	.	16ff
.	.	.	8ee
.	.	.	16ee
.	.	.	16dd
8AA]	8g]	8cc#]	8cc#
8C#	8e	8a	16aa
.	.	.	16gg
=66	=66	=66	=66
4D	4d	8dd	8ff
.	.	16a	8ee
.	.	16g	.
4.r	8r	8f	8dd
.	16A	8e	8cc#
.	16G	.	.
.	8F	8d	8dd
16AA	8E	8c#	8ee
16GG	.	.	.
=67	=67	=67	=67
8FF	8D	8d	4ff
8EE	8C#	8e	.
8DD	8D	8f	8r
8CC#	8E	4r	16a
.	.	.	16g
8DD	8F	.	8f
8EE	8G	16a	8cc#
.	.	16g	.
=68	=68	=68	=68
8FF	8A	8f	8dd
8DD	8f#	8a	16ddd
.	.	.	16ccc
8GG	8g	8b-	8bb-
4r	8f#	16dd	8aa
.	.	16cc	.
.	8g	8b-	8gg
16d	8d	8a	8ff#
16c	.	.	.
=69	=69	=69	=69
8B-	8d	8g	8gg
8A	16dd	8f#	8aa
.	16cc	.	.
8G	8b-	8g	8bb-
8F#	8a	16dd	4r
.	.	16cc	.
8G	8g	8b-	.
8A	16d	8cc	8ff#
.	16c	.	.
=70	=70	=70	=70
8B-	4B-	8dd	8gg
8G	.	16b-	16gg
.	.	16a	16ff
8c	8r	8g	8ee
4r	16g	8c	16ee
.	16f	.	16dd
.	8e	8cc	8cc
16c	8g	8r	8ee
16B-	.	.	.
=71	=71	=71	=71
8A	8c	8r	8ff
8G	8e	16cc	8gg
.	.	16b-	.
8F	4f	8a	8aa
8E	.	8g	8bb-
8F	8r	8f	8aa
16B-	8f	16dd	8dd
16A	.	16cc	.
=72	=72	=72	=72
8G	8g	8b-	8ee
8F	8a	8a	8ff
8E	4b-	8g	8gg
8D	.	8f	8aa
8E	8r	8g	8gg
16A	8e	8e	8cc#
16G	.	.	.
=73	=73	=73	=73
8F	8f	8a	8dd
8C#	8g	8g	8ee
8D	8a	8f	16ff
.	.	.	16gg
8C	4a	8a	16ee
.	.	.	16ff
8BB-	.	8dd	16dd
.	.	.	16ff
8B-	8g#	16d	16ee
.	.	16f	16dd
=74	=74	=74	=74
8A	8a	8a	8cc#
8G	4a	8cc#	16aa
.	.	.	16cc#
8F	.	8r	8dd
8D	4a	8dd	16aa
.	.	.	16dd
8C#	.	8r	8ee
8AA	[8a	8ee	16aa
.	.	.	16ee
=75	=75	=75	=75
8D	8a]	8r	8ff
8c	4d	16ff#	16aa
.	.	16aa	16ff#
8B-	.	8gg	8gg
8G	4d	4dd	16bb-
.	.	.	16gg
8F#	.	.	8aa
8D	[8d	8cc	16ddd
.	.	.	16aa
=76	=76	=76	=76
8G	8d]	8b-	8bb-
8F	4G	16b	16ddd
.	.	16dd	16bb
8E	.	16cc	16ccc
.	.	16b	16bb
8F	4G	16cc	16ccc
.	.	16b	16bb
8E	.	8cc	16ccc
.	.	.	16ee
8C	8e	[8cc	16gg
.	.	.	16bb-
=77	=77	=77	=77
8FF	8f	8cc]	16aa
.	.	.	16ff
8F	4a	4cc	16ee
.	.	.	16ff
8F	.	.	16cc
.	.	.	16a
8F	4a	4cc	16cc
.	.	.	16a
8F	.	.	16f
.	.	.	16cc
8F	8a	8ff	16ff
.	.	.	16aa
=78	=78	=78	=78
8F	8g	8ee	8bb-
8FF	4B- 4e	4ee	4gg
8FF	.	.	.
8FF	4B- 4e	16bb-	4ee
.	.	16gg	.
8FF	.	16bb-	.
.	.	16gg	.
8FF	8e 8B-	16bb-	8cc
.	.	16gg	.
=79	=79	=79	=79
8FF	8f 8A	8aa	16aa
.	.	.	16a
4F	4a	4cc	16cc
.	.	.	16ff
.	.	.	16aa
.	.	.	16bb-
8E-	4a	8.cc	16gg
.	.	.	16aa
8D	.	.	16ff#
.	.	16ee-	16aa
8F#	8d	16dd	16ff#
.	.	16cc	16aa
=80	=80	=80	=80
8G 8GG	8d	8b- 8d	16bb-
.	.	.	16gg
8G	4g	4b- 4d	16ff#
.	.	.	16gg
8G	.	.	16dd
.	.	.	16b-
8G	4d 4b-	4b- 4d	16dd
.	.	.	16b-
8G	.	.	16g
.	.	.	16b-
8G	8b- 8d	8b- 8d	16a
.	.	.	16g
=81	=81	=81	=81
8GG 8G	8cc 8e-	8a 8f#	16f#
.	.	.	16a
8G	4cc	4a 4f#	16cc
.	.	.	16dd
8G	.	.	16ee-
.	.	.	16cc
8G	4cc	4a 4f#	16a
.	.	.	16ff#
8G	.	.	16ccc
.	.	.	16aa
8G	8a	16ee-	16ff#
.	.	16dd	16aa
=82	=82	=82	=82
4.GG 4.G	8g	8dd	16bb-
.	.	.	16aa
.	8B-	4dd	16aa
.	.	.	16gg
.	8B-	.	16gg
.	.	.	16ff
8G	8B-	16dd	16ff
.	.	16ee-	16ee-
8G	8B-	8ee-	8ee-
8G	8g	8e-	16bb-
.	.	.	16ddd
=83	=83	=83	=83
4.A	8f	8ee-	16ddd
.	.	.	16ccc
.	4f	4ee-	16ccc
.	.	.	16bb-
.	.	.	16bb-
.	.	.	16aa
8A	4f	16ee	16aa
.	.	16ff	16gg
8A	.	8ff	16gg
.	.	.	16ff
8A	[8f	8cc	16gg
.	.	.	16ee-
=84	=84	=84	=84
8B-	8f]	4dd	8dd
8c	4f	.	8cc
8d	.	4.r	8b-
8e-	4f	.	8a
8d	.	.	8b-
8AA	[8f	8c	16ff
.	.	.	16ee-
=85	=85	=85	=85
8BB-	8f]	4d	8dd
8C	8e-	.	8cc
8D	8d	4.r	8b-
8E-	8c	.	8a
8D	8B-	.	8b-
8B	8d	[8g	16gg
.	.	.	16ff
=86	=86	=86	=86
8c	8e-	8g]	8ee-
8d	8f	8f	8dd
8e-	8g	8e-	8cc
8f	8a-	8d	8b
8e-	8g	8e-	8cc
8d	8f	8f	8dd
=87	=87	=87	=87
8c	8e-	8g	8ee-
8B-	8g	4cc	8ee
8A	8f	.	8ff
8G	4c	8ee	8gg
8F	.	8ff	8aa-
8E-	8c	8ff	8aa
=88	=88	=88	=88
2D	4B-	4ff	16bb-
.	.	.	16aa
.	.	.	16bb-
.	.	.	16ddd
.	4f	4dd	16bb-
.	.	.	16aa
.	.	.	16bb-
.	.	.	16ff
4G	4d	[4b-	16bb-
.	.	.	16aa
.	.	.	16bb-
.	.	.	16ddd
=89	=89	=89	=89
4E-	4g	4b-]	16ccc
.	.	.	16bb
.	.	.	16ccc
.	.	.	16eee-
4F	4f	8a	16ccc
.	.	.	16ddd
.	.	8b-	16bb-
.	.	.	16ccc
4FF	16e-	8cc	16aa
.	16d	.	16bb-
.	16e-	8f	16ccc
.	16c	.	16ee-
=90	=90	=90	=90
16B-	4d	8b-	4dd
16A	.	.	.
16B-	.	8f	.
16d	.	.	.
16B-	2r	4dd	4ff
16A	.	.	.
16B-	.	.	.
16F	.	.	.
16B-	.	4d	[4bb-
16A	.	.	.
16B-	.	.	.
16d	.	.	.
=91	=91	=91	=91
16c	4r	[4e-	4bb-]
16B	.	.	.
16c	.	.	.
16e-	.	.	.
16c	4r	16e-]	8aa
16d	.	16f	.
16B-	.	16d	8gg
16c	.	16e-	.
16A	[4f	16c	8ff
16B-	.	16d	.
16c	.	16e-	8ee-
16A	.	16c	.
=92	=92	=92	=92
4B-	8.f]	4d	16dd
.	.	.	16cc#
.	.	.	16dd
.	16d	.	16ff
4BB-	4f	8r	16dd
.	.	.	16cc#
.	.	8d	16dd
.	.	.	16ff
4AA-	4f	8f	16cc
.	.	.	16b
.	.	8c	16cc
.	.	.	16ff
=93	=93	=93	=93
2.GG	2f	2d	16b
.	.	.	16cc
.	.	.	16dd
.	.	.	16ee-
.	.	.	16ff
.	.	.	16ee-
.	.	.	16dd
.	.	.	16cc
.	8.d	8.f	16b
.	.	.	16a-
.	.	.	16g
.	16B	16b	16f
=94	=94	=94	=94
4C	4G	16cc	4e-
.	.	16b	.
.	.	16cc	.
.	.	16ee-	.
4r	4e-	16cc	4r
.	.	16b	.
.	.	16cc	.
.	.	16g	.
4A-	[4c	16cc	4e-
.	.	16b	.
.	.	16cc	.
.	.	16ee-	.
=95	=95	=95	=95
4F	4c]	16dd	4a-
.	.	16cc	.
.	.	16dd	.
.	.	16ff	.
4G	8B	16dd	4g
.	.	16ee-	.
.	8c	16cc	.
.	.	16dd	.
4GG	8d	16b	4f
.	.	16cc	.
.	16f	16dd	.
.	16d	16f	.
=96	=96	=96	=96
4C	16c	4e-	4e- 4G
.	16B	.	.
.	16c	.	.
.	16e-	.	.
4r	16c	4ee-	2r
.	16B	.	.
.	16c	.	.
.	16G	.	.
4AA-	16c	[4cc	.
.	16B	.	.
.	16c	.	.
.	16e-	.	.
=97	=97	=97	=97
4FF	16d	4cc]	4r
.	16e-	.	.
.	16f	.	.
.	16e-	.	.
4GG	16d	8b	4r
.	16e-	.	.
.	16c	8a-	.
.	16d	.	.
4GG	16B	8g	4dd
.	16c	.	.
.	16d	8f	.
.	16B	.	.
=98	=98	=98	=98
16C	4G	4e-	16ee-
16BB	.	.	16dd
16C	.	.	16ee-
16CC	.	.	16gg
16C	4c	4g	16ee-
16BB	.	.	16dd
16C	.	.	16ee-
16CC	.	.	16gg
16BB-	4d	4g	16dd
16AA	.	.	16cc#
16BB-	.	.	16dd
16BB-	.	.	16gg
=99	=99	=99	=99
2.AA	2.e	2.g	16cc#
.	.	.	16dd
.	.	.	16ee
.	.	.	16ff
.	.	.	16gg
.	.	.	16ff
.	.	.	16ee
.	.	.	16dd
.	.	.	16cc#
.	.	.	16b-
.	.	.	16a
.	.	.	16g
=100	=100	=100	=100
8D	8A	8f	8f
8DD	4A	4a	4ff
8D	.	.	.
8DD	4A	4dd	4aa
8D	.	.	.
8DD	8f	8f 8dd	8ddd
=101	=101	=101	=101
2.D	2.g	2.cc# 2.e	16ddd
.	.	.	16ccc#
.	.	.	16ccc#
.	.	.	16bb-
.	.	.	16bb-
.	.	.	16aa
.	.	.	16aa
.	.	.	16gg
.	.	.	16gg
.	.	.	16ff
.	.	.	16ff
.	.	.	16ee
=102	=102	=102	=102
8D	8f	8f 8dd	16dd
.	.	.	16ee
4d	4f	4a	16ff
.	.	.	16gg
.	.	.	8aa
4d	4f	4a	4aa
[8d	8e	16g#	16gg#
.	.	16b	16bb
=103	=103	=103	=103
8d]	8f	8a	8aa
4d	8e	16g#	16gg#
.	.	16b	16bb
.	8f	8a	8aa
4d	8e	16g#	16gg#
.	.	16b	16bb
.	8f	8a	8aa
8d	8d	8d	8dd
=104	=104	=104	=104
8A	8c#	8e	8ee
8G#	8d	4e	4ee
8A	8c#	.	.
4A	4c#	16g#	16gg#
.	.	16a	16aa
.	.	8e	8ee
[8A	[8c#	8a	8aa
=105	=105	=105	=105
8A]	8c#]	8e	8ee
8G#	8d	4e	4ee
8A	8c#	.	.
4A	4c#	8a	8aa
.	.	16g	16gg
.	.	16f	16ff
8A	8c#	16g	16gg
.	.	16e	16ee
=106	=106	=106	=106
8d	8f	16d	16dd
.	.	16e	16ee
4d	4f	16f	16ff
.	.	16g	16gg
.	.	8a	8aa
4d	4f	4a	4aa
[8d	8e	16g#	16gg#
.	.	16b	16bb
=107	=107	=107	=107
8d]	8f	8a	8aa
4d	8e	16g#	16gg#
.	.	16b	16bb
.	8f	8a	8aa
4d	8e	16g#	16gg#
.	.	16b	16bb
.	8f	8a	8aa
8d	8d	8d	8dd
=108	=108	=108	=108
8A	8c#	8e	8ee
8G#	8d	4e	4ee
8A	8c#	.	.
4A	4c#	16g#	16gg#
.	.	16a	16aa
.	.	8e	8ee
[8A	[8c#	8a	8aa
=109	=109	=109	=109
8A]	8c#]	8e	8ee
8G#	8d	4e	4ee
8A	8c#	.	.
4A	4c#	8a	8aa
.	.	16g	16gg
.	.	16f	16ff
8A	8c#	16g	16gg
.	.	16e	16ee
=110	=110	=110	=110
8d	8d	8f	8ff
8d	8f	8a	16ff
.	.	.	16ee
8d	8f	8a	8dd
8d	8f	8a	16dd
.	.	.	16cc#
8d	8f	8a	8dd
8d	8f	8a	16dd
.	.	.	16ee
=111	=111	=111	=111
8d	8d	8f	8ff
8d	8f	8a	16ff
.	.	.	16ee
8d	8f	8a	8dd
8d	8f	8a	16dd
.	.	.	16cc#
8d	8f	8a	8dd
8d	8f	8a	16dd
.	.	.	16ee
=112	=112	=112	=112
8d	8f	8a	8ff
8d	8f	8a	16ff
.	.	.	16ee
8d	8f	8a	8dd
8d	8f	8a	16dd
.	.	.	16cc#
8d	8f	8a	8dd
8d	8f	8a	16dd
.	.	.	16ee
=113	=113	=113	=113
8B	8d	8a-	8ff
8B	8d	8a-	16ff
.	.	.	16ee
8B	8d	8a-	8ff
8B	8d	8a-	16ff
.	.	.	16ee
8B	8d	8a-	8ff
8B	8d	8a-	16aa-
.	.	.	16gg
=114	=114	=114	=114
8B	8d	8a-	8ff
8B	8d	8a-	16ff
.	.	.	16ee
8B	8d	8a-	8ff
8B	8d	8a-	16ff
.	.	.	16ee
8B	8d	8a-	8ff
8B	8d	8a-	16aa-
.	.	.	16gg
=115	=115	=115	=115
8c	8f	8a-	8ff
8c	8f	8a-	16ff
.	.	.	16ee
8c	8f	8a-	8ff
8c	8f	8a-	16ff
.	.	.	16ee
8c	8f	8a-	8ff
8c	8f	8a-	16aa-
.	.	.	16ff
=116	=116	=116	=116
8C	8e-	8a- 8A-	16gg-
.	.	.	16ff
8C	8e-	8a- 8A-	16gg-
.	.	.	16ff
8C	8e-	8a- 8A-	16gg-
.	.	.	16ff
8C	8e-	8a- 8A-	16gg-
.	.	.	16ff
8C	8e-	8a- 8A-	16gg-
.	.	.	16bb-
8C	8e-	8a- 8A-	16aa-
.	.	.	16gg-
=117	=117	=117	=117
8D-	8f	8a-	8ff
8D-	8f	4a-	16aa-
.	.	.	16gg-
8D-	8f	.	8ff
8D-	8f	4a-	16aa-
.	.	.	16gg-
8D-	8f	.	8ff
8D-	8f	8a-	16ff
.	.	.	16gg
=118	=118	=118	=118
8D-	8f	8a	8aa
8D-	8f	4a	4aa
8D-	8f	.	.
8D-	8f	4a	4aa
8D-	8f	.	.
8D-	8f	16f	16ff
.	.	16a	16aa
=119	=119	=119	=119
8DD-	8F	8b-	8bb-
8DD-	8F	4b-	4bb-
8DD-	8F	.	.
8DD-	8F	16B-	16bb-
.	.	16A	16aa
8DD-	8F	8B-	8bb-
8DD-	8F	8B	8bb
=120	=120	=120	=120
4CC	8E	16c	8ccc
.	.	16B	.
.	8r	16d	4ccc
.	.	16c	.
2r	16c	16e	.
.	16B	16d	.
.	16d	16f	4ccc
.	16c	16e	.
.	16e	16g	.
.	16d	16f	.
.	16f	16a	[8ccc
.	16e	16g	.
=121	=121	=121	=121
8C	16g	16b-	8ccc]
.	16a	16cc	.
8D	16f	16a	4ccc
.	16g	16b-	.
8E	16e	16g	.
.	16f	16a	.
8F	16d	16f	4ccc
.	16e	16g	.
16G	8c	16e	.
16A	.	16f	.
16F	8r	16d	8ccc
16G	.	16e	.
=122	=122	=122	=122
8E	8e	4c	16cc
.	.	.	16b
8r	8f	.	16dd
.	.	.	16cc
8B-	8g	2r	16ee
.	.	.	16dd
8A	8a	.	16ff
.	.	.	16ee
8G	16b-	.	16gg
.	16cc	.	16ff
8F	16a	.	16aa
.	16b-	.	16gg
=123	=123	=123	=123
4E	4g	4cc 4bb- 4e	16bb-
.	.	.	16aa
.	.	.	16gg
.	.	.	16aa
4.r	4.r	4.r	16gg
.	.	.	16ff
.	.	.	16ee
.	.	.	16ff
.	.	.	16ee
.	.	.	16dd
8E	8c	8g	16cc
.	.	.	16b-
=124	=124	=124	=124
8F	8c	8a	8a
8G	8B-	8e	8g
8A	8A	8f	8f
8B-	8G	8c	8e
8A	8c	8f	8f
8E	8c	8B-	8g
=125	=125	=125	=125
8F	8c	8A	8a
8E-	8A	8c	8f
8D	8f	8B-	8b-
4r	16d	4r	4r
.	16c	.	.
.	8B-	.	.
8F#	8d	8a	16dd
.	.	.	16cc
=126	=126	=126	=126
8G	8d	8b-	8b-
8A	8c	8f#	8a
8B-	8B-	8g	8g
8c	8A	8d	8f#
8B-	8d	8g	8g
8F#	8d	8c	8a
=127	=127	=127	=127
8G	8d	8B-	8b-
8F	8B-	8d	8g
8E	8g	8c	8cc
16EE	4r	4r	4r
16DD	.	.	.
8CC	.	.	.
8r	8B	8d	16gg
.	.	.	16ff
=128	=128	=128	=128
2.r	8c	8e	8ee
.	8d	8f	8dd
.	8e	8g	8cc
.	8f	8a-	8b
.	8e	8g	8cc
.	8f	8a-	8b
=129	=129	=129	=129
4.r	4e	8g	8cc
.	.	8a	8cc#
.	4r	4.b-	4.dd
16C	.	.	.
16D	.	.	.
8E	4G	.	.
8EE	.	16a	16cc
.	.	16g	16b-
=130	=130	=130	=130
8FF	4A	4.f	8a
16F	.	.	16aa
16G	.	.	16gg
8A	8r	.	4ff
8FF	8A	8c	.
8FF	8B-	8d	8ff
8FF	8B-	8e	16ee
.	.	.	16dd
=131	=131	=131	=131
8FF	4B-	8f	4dd
16F	.	8e	.
16G	.	.	.
8A	8A	8f	8cc
8FF	8A	8c	16aa
.	.	.	16gg
8FF	8B-	8d	8ff
8FF	8B-	8e	16ee
.	.	.	16dd
=132	=132	=132	=132
8FF	4B-	8f	4dd
16F	.	8e	.
16G	.	.	.
8A	8A	8f	8cc
8FF	8f	8c	16aa
.	.	.	16gg
8FF	8f	8a	16ff
.	.	.	16ee
8FF	8f	8a	16dd
.	.	.	16cc
=133	=133	=133	=133
4GG	4g	8d	8cc
.	.	8r	8b
8r	8r	8e	8b-
8C	8g	8r	8r
8r	8r	8f	8a
8D	8f	8r	8r
=134	=134	=134	=134
8r	8r	8d	8g
8BB-	8g	8r	8r
8r	8r	8B-	8b-
8GG	8d	8r	8r
8r	8r	8G	8e
8C	8B-	8r	8r
=135	=135	=135	=135
16FF	4A	16A	4.f 4.A
16EE	.	16B-	.
16FF	.	16A	.
16EE	.	16B-	.
8FF	8r	8A	.
8FF	8A	8f	8f
8FF	8B-	8e	8g
8FF	8c	8e-	8a
=136	=136	=136	=136
16FF	2.B-	2.d	4.b-
16EE	.	.	.
16FF	.	.	.
16EE	.	.	.
8FF	.	.	.
8FF	.	.	16dd
.	.	.	16cc
8FF	.	.	16b-
.	.	.	16a
8FF	.	.	16g
.	.	.	16f
=137	=137	=137	=137
8FF	8d-	8e 8B-	4.e 4.G
8r	4d-	4B- 4e	.
8FF	.	.	.
8r	4d-	4B- 4e	16gg
.	.	.	16ee
8FF	.	.	16gg
.	.	.	16ee
8r	8d-	8B- 8e	16gg
.	.	.	16ee
=138	=138	=138	=138
4.FF	8c	8A 8f	8.ccc
.	4c	4f 4A	.
.	.	.	16aa
.	.	.	8ff
8FF	8A	8f	8f
8FF	8B-	8e	8g
8FF	8c	8e-	8a
=139	=139	=139	=139
16FF	2.B-	2.d	4.b-
16EE	.	.	.
16FF	.	.	.
16EE	.	.	.
8FF	.	.	.
8FF	.	.	16dd
.	.	.	16cc
8FF	.	.	16b-
.	.	.	16a
8FF	.	.	16g
.	.	.	16f
=140	=140	=140	=140
8FF	8d-	8e 8B-	4.e 4.G
8r	4d-	4e 4B-	.
8FF	.	.	.
8r	4d-	4B- 4e	16gg
.	.	.	16ee
8FF	.	.	16gg
.	.	.	16ee
8r	8d-	8B- 8e	16gg
.	.	.	16ee
=141	=141	=141	=141
4FF	4c	8f 8A	8.ccc
.	.	4A 4f	.
.	.	.	16aa
2r	8r	.	8ff
.	8b-	8cc	16gg
.	.	.	16ee
.	8b-	8cc	16gg
.	.	.	16ee
.	8b-	8cc	16gg
.	.	.	16ee
=142	=142	=142	=142
4.r	4a	4cc	8.ccc
.	.	.	16aa
.	8r	8r	8ff
8c#	8e	8gg 8a	16aa
.	.	.	16a
8c#	8e	8gg 8a	16aa
.	.	.	16a
8c#	8e	8gg 8a	16aa
.	.	.	16a
=143	=143	=143	=143
4d	4f	4a 4ff	8.aa
.	.	.	16ff
2r	8r	8r	8dd
.	16cc	16ee-	8ff#
.	16a	16cc	.
.	16cc	16ee-	8ff#
.	16a	16cc	.
.	16cc	16ee-	8ff#
.	16a	16cc	.
=144	=144	=144	=144
2.r	4b-	4dd	8.gg
.	.	.	16bb-
.	8r	8r	8ddd
.	16b-	16dd-	8ee
.	16g	16b-	.
.	16b-	16dd-	8ee
.	16g	16b-	.
.	16b-	16dd-	8ee
.	16g	16b-	.
=145	=145	=145	=145
4r	4a	4cc	8.ff
.	.	.	16aa
4r	4r	4r	8ccc
.	.	.	16ccc
.	.	.	16aa
4AA	4f	4cc	8ff
.	.	.	16aa
.	.	.	16ff
=146	=146	=146	=146
4BB-	4f	4dd	8dd
.	.	.	16ff
.	.	.	16dd
4r	4r	4r	8b-
.	.	.	16dd
.	.	.	16b-
4BB	4B	4d	8g
.	.	.	8f
=147	=147	=147	=147
8C	4c	4G	4f
8c	.	.	.
8C	4r	4r	4e
8C	.	.	.
8C	4e	4g	8.cc
8C	.	.	.
.	.	.	16cc
=148	=148	=148	=148
8C	2d	2f	4cc
8c	.	.	.
8C	.	.	4b
8C	.	.	.
8C	4dd	4b	[4ff
8C	.	.	.
=149	=149	=149	=149
8C	4b	4dd	4ff]
8c	.	.	.
8C	4cc	4cc	4ee
8C	.	.	.
8C	4b-	4dd	[4gg
8C	.	.	.
=150	=150	=150	=150
8C	2a	2cc	4gg]
8c	.	.	.
8C	.	.	4ff
8C	.	.	.
8C	4f	4dd	[4bb-
8C	.	.	.
=151	=151	=151	=151
8C	4g	4ee	4bb-]
8c	.	.	.
8C	4a	4ff	4aa
8C	.	.	.
8C	4f	4aa-	[4ddd
8C	.	.	.
=152	=152	=152	=152
8C	2e	2gg	4ddd]
8c	.	.	.
8C	.	.	4ccc
8C	.	.	.
8C	[4a-	[4ff	[4bb
8C	.	.	.
=153	=153	=153	=153
8CC	4a-]	4ff]	4bb]
8C	.	.	.
8CC	8g	8ee	8ccc
8C	16f	16dd	16bb
.	16g	16ee	16ccc
8CC	8a-	8ff	8ddd
8C	16a-	16ff	16ddd
.	16f	16dd	16bb
=154	=154	=154	=154
8CC	8g	8ee	8ccc
8C	4g	4ee	16ccc
.	.	.	16bb
8CC	.	.	8ccc
8C	16f	16dd	16bb
.	16g	16ee	16ccc
8CC	8a-	8ff	8ddd
8C	16a-	16ff	16ddd
.	16f	16dd	16bb
=155	=155	=155	=155
8CC	8g	8ee	8ccc
8C	4g	4ee	16ccc
.	.	.	16bb
8CC	.	.	8ccc
4r	4r	4r	16ddd
.	.	.	16ccc
.	.	.	8bb-
8E	[8cc	8g	16ccc
.	.	.	16bb-
=156	=156	=156	=156
8F	8cc]	8a	8aa
8G	8b-	8b-	8gg
8A	8a	8cc	8ff
8B-	8g	8cc	8ee
8A	8f	8cc	8ff
8r	8e	8g	16ccc
.	.	.	16bb-
=157	=157	=157	=157
2r	8f	8a	8aa
.	8g	8b-	8gg
.	8a	8cc	8ff
.	8b-	8cc	8ee
8r	8a	8cc	8ff
8AA	8f	8cc	16fff
.	.	.	16eee
=158	=158	=158	=158
8BB-	8f	8dd	8ddd
8r	8r	8r	16ddd
.	.	.	16ccc
8B-	8f	8dd	8bb-
8r	8r	8r	16bb-
.	.	.	16aa
8B-	8g	8dd	8gg
8r	8r	8r	16gg
.	.	.	16ff
=159	=159	=159	=159
4B-	4g	4cc	4ee
2r	2r	2r	2r
=160	=160	=160	=160
2AA	4f	4cc	16ff
.	.	.	16ee
.	.	.	16ff
.	.	.	16aa
.	4c	4a	16ff
.	.	.	16ee
.	.	.	16ff
.	.	.	16cc
4D	4A	[4f	16ff
.	.	.	16ee
.	.	.	16ff
.	.	.	16aa
=161	=161	=161	=161
4BB-	4d	4f]	16gg
.	.	.	16ff#
.	.	.	16gg
.	.	.	16bb-
4C	4c	8e	16gg
.	.	.	16aa
.	.	8f	16ff
.	.	.	16gg
4CC	4B-	4g	16ee
.	.	.	16ff
.	.	.	16gg
.	.	.	16ee
=162	=162	=162	=162
16FF	4A	16a	4ff
16EE	.	16b-	.
16FF	.	16a	.
16AA	.	16f	.
16FF	2r	16a	4r
16EE	.	16b-	.
16FF	.	16a	.
16CC	.	16ff	.
16FF	.	16a	[4ff
16EE	.	16b-	.
16FF	.	16a	.
16AA	.	16cc	.
=163	=163	=163	=163
16GG	16B-	4b-	4ff]
16FF#	16A	.	.
16GG	16B-	.	.
16BB-	16d	.	.
16GG	16B-	2r	4ee
16AA	16c	.	.
16FF	16A	.	.
16GG	16B-	.	.
16EE	16G	.	[4gg
16FF	16A	.	.
16GG	16B-	.	.
16EE	16G	.	.
=164	=164	=164	=164
16AA	4c	16cc	4gg]
16GG	.	16dd	.
16AA	.	16cc	.
16C	.	16a	.
16AA	2r	16cc	4ff
16BB-	.	16dd	.
16GG	.	16b-	.
16AA	.	16cc	.
16FF	.	16a	[4aa
16GG	.	16b-	.
16AA	.	16cc	.
16FF	.	16a	.
=165	=165	=165	=165
16BB-	16d	4dd	4aa]
16AA	16c	.	.
16BB-	16d	.	.
16D	16B-	.	.
16BB-	16d	4r	4gg
16C	16e-	.	.
16AA	16c	.	.
16BB-	16d	.	.
16GG	16B-	8.dd	[4bb-
16AA	16c	.	.
16FF	16A	.	.
16GG	16B-	16dd	.
=166	=166	=166	=166
8EE	8G	8cc	16bb-]
.	.	.	16aa
8r	8r	8r	16gg
.	.	.	16ff
8E	8c	8g	16ee
.	.	.	16dd
8r	8r	8r	16cc
.	.	.	16b-
8F	8c	8a	16a
.	.	.	16ff
8r	8r	8r	16cc
.	.	.	16a
=167	=167	=167	=167
8BB-	8d	8b-	16g
.	.	.	16dd
8r	8r	8r	16b-
.	.	.	16g
8C	8c	8a	16f
.	.	.	16cc
8r	8r	8r	16a
.	.	.	16f
8C	8c	8g	16e
.	.	.	16b-
8r	8r	8r	16g
.	.	.	16e
=168	=168	=168	=168
4D	4B	4f	16f
.	.	.	16e
.	.	.	16d
.	.	.	16c
2r	2r	2r	4B
.	.	.	4r
=169	=169	=169	=169
4E	4g	4cc	16bb-
.	.	.	16gg
.	.	.	16ee
.	.	.	16cc
2r	2r	4.r	4b-
.	.	.	8r
.	.	8e	16cc
.	.	.	16b-
=170	=170	=170	=170
4.r	8r	4f	8a
.	16c	.	8g
.	16B-	.	.
.	4A	4.r	8f
16C	.	.	8g
16BB-	.	.	.
8AA	4r	.	8a
8r	.	8e	16cc
.	.	.	16b-
=171	=171	=171	=171
4.r	8r	4f	8a
.	16c	.	8g
.	16B-	.	.
.	4A	4.r	8f
16C	.	.	8g
16BB-	.	.	.
8AA	8r	.	8a
8A	8f	8cc	16ff
.	.	.	16ee
=172	=172	=172	=172
4B-	4f	4dd	8dd
.	.	.	16bb-
.	.	.	16aa
2r	2r	2r	8gg
.	.	.	16ddd
.	.	.	16ccc
.	.	.	8bb-
.	.	.	8ggg
=173	=173	=173	=173
2c	2b-	2g	4fff
.	.	.	4eee
8r	4r	8r	8r
8r	.	8r	16ggg
.	.	.	16fff
=174	=174	=174	=174
4.r	4b-	4cc	16eee
.	.	.	16fff
.	.	.	16ggg
.	.	.	16aaa
.	2r	2r	4bbb-
16GG	.	.	.
16FF	.	.	.
8EE	.	.	8r
8r	.	.	16aaa
.	.	.	16ggg
=175	=175	=175	=175
4.r	4a	4cc	16fff
.	.	.	16ggg
.	.	.	16aaa
.	.	.	16bbb-
.	2r	2r	4cccc
16AA	.	.	.
16GG	.	.	.
8FF#	.	.	8r
8r	.	.	16bbb-
.	.	.	16aaa
=176	=176	=176	=176
4.r	4b-	4dd	16ggg
.	.	.	16aaa
.	.	.	16bbb-
.	.	.	16cccc
.	4.r	4.r	4ddd
16BB-	.	.	.
16AA	.	.	.
8GG	.	.	8r
16BB-	16B-	16B-	16B-
16AA	16A	16A	16A
=177	=177	=177	=177
16GG	16G	16G	16G
16AA	16A	16A	16A
16BB-	16B-	16B-	16B-
16C	16c	16c	16c
16D	16d	16d	16d
16F#	16f#	16f#	16f#
16G	16g	16g	16g
16F#	16f#	16f#	16f#
16G	16g	16g	16g
16A	16a	16a	16a
16B-	16b-	16b-	16b-
16c	16cc	16cc	16cc
=178	=178	=178	=178
8d	8dd	8dd	8dd
8r	8r	8r	8r
8G	8g	8b-	8b-
8r	8r	8r	8r
8C	8g	8b-	8ee
8r	8r	8r	8r
=179	=179	=179	=179
8F	2.c 2.f	2.f 2.a	8ff
8FF	.	.	4cc
8F	.	.	.
8FF	.	.	4a 4cc
8F	.	.	.
8FF	.	.	16cc
.	.	.	16a
=180	=180	=180	=180
8F	8c 8e	8b- 8g	8b-
4F	4e 4c	4b- 4g	16b-
.	.	.	16a
.	.	.	8g
4F	4e 4c	4g 4b-	16g
.	.	.	16f
.	.	.	8e
8F	8e 8c	8b- 8g	8cc
=181	=181	=181	=181
8F	2.f 2.c	2.a 2.f	8cc
8FF	.	.	4ff
8F	.	.	.
8FF	.	.	4aa
8F	.	.	.
8FF	.	.	8ccc
=182	=182	=182	=182
8F	8e 8c	8b- 8g	16ccc
.	.	.	16bb-
4F	4e 4c	4b- 4g	16bb-
.	.	.	16aa
.	.	.	16aa
.	.	.	16gg
4F	4e 4c	4g 4b-	16gg
.	.	.	16ff
.	.	.	16ff
.	.	.	16ee
8F	8e 8c	8b- 8g	16gg
.	.	.	16ee
=183	=183	=183	=183
8F	2.c 2.f	2.a 2.f	8ff
8FF	.	.	4aa
8F	.	.	.
8FF	.	.	4ccc
8F	.	.	.
8FF	.	.	16fff
.	.	.	16ccc
=184	=184	=184	=184
8F	8e 8c	8b- 8g	8bb-
4F	4c 4e	4b- 4g	16bb-
.	.	.	16aa
.	.	.	8gg
4F	4e 4c	4g 4b-	16gg
.	.	.	16ff
.	.	.	8ee
8F	8e 8c	8b- 8g	8gg
=185	=185	=185	=185
8FF	4c 4f	8a 8f	16ff
.	.	.	16gg
8F	.	16a	16aa
.	.	16b-	16bb-
8F	8r	8cc	8ccc
8F	4a	4cc	4ccc
8F	.	.	.
8F	8g#	16b	16bb
.	.	16dd	16ddd
=186	=186	=186	=186
8F	8a	8cc	8ccc
8F	8g#	16b	16bb
.	.	16dd	16ddd
8F	8a	8cc	8ccc
8F	8g#	16b	16bb
.	.	16dd	16ddd
8F	8a	8cc	8ccc
8F	8cc	8ff	8fff
=187	=187	=187	=187
4B-	8b-	8dd	8gg
.	4b-	4dd	4gg
2r	.	.	.
.	8cc	8ee-	16ff#
.	.	.	16aa
.	8b-	8dd	8gg
.	8cc	8ee-	16ff#
.	.	.	16aa
=188	=188	=188	=188
2.r	4b-	4dd	16gg
.	.	.	16ff#
.	.	.	16aa
.	.	.	16gg
.	2r	4.r	16bb-
.	.	.	16aa
.	.	.	16ccc
.	.	.	16bb-
.	.	.	8ddd
.	.	8g	8b-
=189	=189	=189	=189
4c	4c	4f	16a
.	.	.	16ccc
.	.	.	16aa
.	.	.	16ff
4r	4r	8r	8cc
.	.	8f	8a
4C	4c	8g	8b-
.	.	8b-	8e
=190	=190	=190	=190
4F	4c	4a	16f
.	.	.	16e
.	.	.	16f
.	.	.	16a
2r	2r	2r	16cc
.	.	.	16b
.	.	.	16dd
.	.	.	16cc
.	.	.	16b-
.	.	.	16a
.	.	.	16g
.	.	.	16f
=191	=191	=191	=191
4BB-	4c	4g	16e
.	.	.	16g
.	.	.	16cc
.	.	.	16ee
2r	2r	2r	16gg
.	.	.	16ff#
.	.	.	16aa
.	.	.	16gg
.	.	.	16ff
.	.	.	16ee
.	.	.	16dd
.	.	.	16cc
=192	=192	=192	=192
4AA	4F	4cc	16ff
.	.	.	16cc
.	.	.	16ff
.	.	.	16aa
2r	2r	2r	16ccc
.	.	.	16bb
.	.	.	16ddd
.	.	.	16ccc
.	.	.	16bb-
.	.	.	16aa
.	.	.	16gg
.	.	.	16ff
=193	=193	=193	=193
8BB-	8B-	8r	16ee
.	.	.	16dd
8r	8r	16bb-	16ddd
.	.	16dd	16bb-
8C	8f	8cc	8aa
8r	8r	16a	16ccc
.	.	16cc	16aa
8C	8e	8b-	8bb-
8r	8r	16b-	16gg
.	.	16g	16ee
=194	=194	=194	=194
8F	8r	8a	8ff
8C	16b-	16ee	16gg
.	16e	16gg	16bb-
8FF	8f	8ff	8aa
8C	16g	16g	16ee
.	16e	16b-	16gg
8F	8f	8a	8ff
8C	16b-	16ee	16gg
.	16e	16gg	16bb-
=195	=195	=195	=195
8F	8f	8ff	8aa
8C	16g	16g	16ee
.	16e	16b-	16gg
8FF	8f	8a	8ff
8C	16b-	16ee	16gg
.	16e	16gg	16bb-
8F	8f	8ff	8aa
8C	16g	16g	16ee
.	16e	16b-	16gg
=196	=196	=196	=196
4F	4f	4a	4ff
2r	8r	8r	8r
.	8c	16e	16gg
.	.	16g	16bb-
.	8f	8a	8aa
.	8c	16b-	16ee
.	.	16e	16gg
=197	=197	=197	=197
2.r	4f	4f	4ff
.	8r	8r	8r
.	8c	16e	16gg
.	.	16g	16bb-
.	8f	8a	8aa
.	8c	16b-	16ee
.	.	16e	16gg
=198	=198	=198	=198
4r	4f	4f	4ff
4r	4r	4r	4r
8C	8E	8B-	8g
8CC	8e	8G	8b-
=199	=199	=199	=199
4FF	4f	4A	4a
4r	4r	4r	4r
8C	8G	8B-	8e
8CC	8B-	8e	8g
=200	=200	=200	=200
4FF	4A	4f	4f
8r	8r	8r	8r
16C	8B-	8g	8ee
16BB-	.	.	.
8AA	8c	8a	8ff
8GG	8c	8b-	8gg
=201	=201	=201	=201
8FF	8A 8C	8cc	8aa 8cc 8f
8r	8r	8r	8r
8FF	8A 8C	8cc 8A 8f	8cc 8A 8f
8r	8r	8r	8r
8FF	8A 8C	8a 8f 8c	8a 8c 8f
8r	8r	8r	8r
=202	=202	=202	=202
4FF	4C 4A	4f 4A	4f 4A
2r	2r	2r	2r
==	==	==	==
*-	*-	*-	*-
!!!RWG1: This file contains only pitch and duration data.
!!!RWG2: Transposing instruments are not transposed.
!!!RWG3: Spines may have incompatible meters.
!!!RWG4: Durations of rests and tied notes may be interpreted.
!!!RWG: Key is interpreted using the Humdrum key tool.
!!!GTL: 2 Quartetti ("Lobkowitz")
!!!AFT: stage1
!!!END: 1997/04/15
!!!KEY: 1192960841
!!!EMD: Converted from MuseData to Humdrum Dec 16, 2000, by Andreas Kornstaedt using muse2kern.
!!!EMD: Manual editing by Craig Sapp, Nov 2001
